FINK
CUT[ERTOENE BEGEISTERNDES VATERLANDSLIED]
REG[Europa, Mitteleuropa, Deutschland]
KEY[F0423  16 Bb 4/4]
MEL[-5__  1__1_.11_-5_-3_-1_  -5__-5_.-5-5__
    -5_1_  3__2_.34__3_3_  3__2__0__
    -5__  1__1_.11_-5_-3_-1_  -5__-5_.-5-5__
    -5_1_  3__2_.34__3_3_  3__2__0__
    -5_-7_  2__2_2_2__1_2_  3__2__1__
    5__  5__-5_.-5-5__-6_-7_  1_3_2_-7_1__ //] >>
FCT[Vaterlands -, Heimat - Lied, nationalistisch, Sachsen - Lied]
